X: 7
T: Whiskey Before Breakfast
R: reel
M: 4/4
L: 1/8
K: Dmaj
"D"DEFG A2 D2 | ABAG FDEF | "G"G2 BG "D"F2 AF | "A"EDEF E2 E2|
"D"DEFG A2 D2 | ABAG FDEF | "G"G2 BG "D"F2 AF |1 "A"EDEF "D"D2 z2 :|2 "A"EDEF "D"D2 AB ||
"D"d2 dd dBAB | dBAF ED Ad | "Em"e2 ee e2 ef | gfed "A"cABc |
"D"dfed "A"cedc | "G"BcdB "D"AFED | "G"GBAG "D"FAGF |1 "A"EDEF "D"D2 AB :|2 "A"EDEF "D"D2 z2 |]


Tune 602	Setting 13614

